X: 1
T:IT CAME UPON A MIDNIGHT CLEAR
M:6/8
L:1/8
Q:80
C:R.WILLIS
S:
K:HP
A|
f2e{g}edB|
A2BA2{g}A|
Bcd{g}def|  !
e3-e2A|
f2cedB|
A2BA2{g}A|  !
B2{g}B{g}cBA|
{Gdc}d3-d2f|
{g}f2A{g}ABc|  !
d2ef2{g}f|
{g}edc{g}BcB|
{g}A3-A{g}A|  !
f2cedB|
A2BA2{g}A|
B2{g}B{g}cBA|  !
{Gdc}d3-d2|]
